packages/astro-components-stencil/src/icons/arrow-right-alt.svg

<svg xmlns="http://www.w3.org/2000/svg" viewBox="0 0 24 24"><g xmlns="http://www.w3.org/2000/svg" id="arrow-right-alt" fill-rule="nonzero">
            <path d="M16.01 11H5c-.55 0-1 .45-1 1s.45 1 1 1h11.01v1.79c0 .45.54.67.85.35l2.78-2.79c.19-.2.19-.51 0-.71l-2.78-2.79c-.31-.32-.85-.09-.85.35V11z"/>
        </g></svg>

<svg width="24" height="24" viewBox="0 0 24 24" fill="none" xmlns="http://www.w3.org/2000/svg">
<path d="M16.01 11H5C4.45 11 4 11.45 4 12C4 12.55 4.45 13 5 13H16.01V14.79C16.01 15.24 16.55 15.46 16.86 15.14L19.64 12.35C19.83 12.15 19.83 11.84 19.64 11.64L16.86 8.85002C16.55 8.53002 16.01 8.76002 16.01 9.20002V11Z" fill="black"/>
</svg>
